!!!COM: Claude Goudimel
!!!OMD: Psalm 84: O Dieu des armees, combien
**kern	**kern	**kern	**kern
*part4	*part3	*part2	*part1
*staff4	*staff3	*staff2	*staff1
*clefF4	*clefGv2	*clefG2	*clefG2
*k[f#c#]	*k[f#c#]	*k[f#c#]	*k[f#c#]
!!LO:TX:omd:t=
*M4/4	*M4/4	*M4/4	*M4/4
=1	=1	=1	=1
2D	2F#	2A	2d
2D	2F#	2f#	2a
=2	=2	=2	=2
4GG	4B	4d	4g
4D	4A	4d	4f#
4AA	4A	4c#	4e
4BB	4F#	4B	4d
=3	=3	=3	=3
2AA	2A	2c#	2e
2D	2A	2d	2f#
=4	=4	=4	=4
2r	2r	2r	2r
2D	2A	2A	2f#
=5	=5	=5	=5
4GG	4G	4d	4b
4GG	4G	4d	4b
4D	4F#	4d	4a
4D	4A	4d	4f#
=6	=6	=6	=6
2D	2d	2f#	2a
2E	2B	2e	2g
=7	=7	=7	=7
2BB	2B	2e-X	2f#
2r	2r	2r	2r
=8	=8	=8	=8
2D	2F#	2d	2a
4E	4E	4B	4g
4BB	4D	4B	4f#
=9	=9	=9	=9
4Cn	4G	4G	4e
4D	4F#	4d	4a
4GG	4B	4e	4g
4DD	4A	[4d	4f#
=10	=10	=10	=10
2AA	2A	4d]	2e
.	.	4c#	.
2D	2A	2d	2d
=11	=11	=11	=11
2r	2r	2r	2r
2D	2F#	2A	2d
=12	=12	=12	=12
4BB	4D	4B	4f#
4E	4E	4B	4g
2D	2F#	2d	2a
=13	=13	=13	=13
2GG	2G	2d	2b
4AA	4E	4c#	4a
4EE	4E	4B	4g#X
=14	=14	=14	=14
2AA	2E	2c#	2a
2r	2r	2r	2r
=15	=15	=15	=15
2D	2F#	2A	2d
4BB	4B	4d	4f#
4E	4B	4e	4g
=16	=16	=16	=16
2D	2d	2f#	2a
2GG	2d	2g	2b
=17	=17	=17	=17
4AA	4c#	4e	4a
4EE	4B	4e	4g#X
2AA	2c#	2e	2a
=18	=18	=18	=18
2r	2r	2r	2r
2GG	2B	2g	2dd
=19	=19	=19	=19
4AA	4A	4e	4cc#
4GG	4d	4g	4b
2D	2d	2f#	2a
=20	=20	=20	=20
2D	2d	2d	2f#
4E	4B	4g	4g
4D	4d	4f#	4a
=21	=21	=21	=21
2GG	2d	2g	2b
2D	2d	2f#	2a
=22	=22	=22	=22
2r	2r	2r	2r
2AA	2c#	2e	2a
=23	=23	=23	=23
4D	4d	4f#	4a
4E	4B	4e	4g
2BB	2B	2e-X	2f#
=24	=24	=24	=24
2GG	2d	2g	2b
4D	4d	4f#	4a
4E	4B	4en	4g
=25	=25	=25	=25
2BB	2B	2e-X	2f#
2r	2r	2r	2r
=26	=26	=26	=26
2BB	2F#	2B	2d
4D	4d	4A	4f#
4AA	4e	4cn	4a
=27	=27	=27	=27
4AA	4c#	4A	4e
4EE	4B	2e	4g
2FF#	2A	.	2f#
.	.	[4d	.
=28	=28	=28	=28
2AA	2A	4d]	2e
.	.	4c#	.
[2D	[2A	[2d	[2d
=29	=29	=29	=29
2D]	2A]	2d]	2d]
2ryy	2ryy	2ryy	2ryy
==	==	==	==
*-	*-	*-	*-
!!!software: music21 v.9.7.1
!!!software: music21 v.8.3.0
!!!RDF**kern: > = above
!!!RDF**kern: < = below
